X:1
T:Aunt May's Canadian
L:1/8
M:6/8
I:linebreak $
K:D
V:1 treble 
V:1
|: A | f2 f fga | d2 d dcB | ABA AGF | E3- E3 | e2 e efg | e2 d c2 B |1 ABA BAG | F3- F2 :|2$ %9
 ABA ABc | d3- d2 |: A | AFA faf | e2 d d2 A | AFA ABA | A2 G G2 G | GEG ege | d2 c c2 B |1$ %18
 ABA BAG | F3- F2 :|2 ABA ABc | d3- d2 |] %22
